X: 3
T: The Galtee Hunt
R: hornpipe
M: 4/4
L: 1/8
K: Gmaj
GABG AGED| c2cA BGED|~G2GB AGED|EAAG AB (3cBA|
G2BG AGED|cBcd ef (3gfe|dBGB AGED|EGGF G2zD:|
~G2GB d2d2|(3efg fd e2d2|e2d2 g2d2|edBc dBGB|
c2cB cegz|~B2BA Bcdz|~A2AB AGED|~g2gb ag (3gfe|
dBGB AGED|cBcd ef (3gfe|dBGB AGED|EGGF G2zD:|


Tune 386	Setting 13219

